public/Icons/master.svg

<svg width="40" height="24" viewBox="0 0 40 24" fill="none" xmlns="http://www.w3.org/2000/svg">
<path d="M40 11.9845C40 18.5606 34.6461 23.969 28 23.969C21.4153 23.969 15.9999 18.5606 15.9999 11.9845C15.9999 5.40839 21.3538 0 27.9384 0C34.6461 0 40 5.40839 40 11.9845Z" fill="#F9B50B"/>
<path d="M23.9385 12.046C23.9385 11.1855 23.8155 10.3251 23.6924 9.52614H16.3078C16.3693 9.09593 16.4924 8.72717 16.6154 8.2355H23.2001C23.077 7.80529 22.8924 7.37508 22.7078 6.94486H17.1078C17.2924 6.51465 17.5385 6.1459 17.7847 5.65423H22.0308C21.7847 5.22401 21.477 4.7938 21.1078 4.36359H18.7693C19.1385 3.93337 19.5078 3.56462 20.0001 3.13441C17.9078 1.16772 15.077 0 11.9385 0C5.4154 0.184377 0 5.40839 0 11.9845C0 18.5606 5.35387 23.969 12 23.969C15.1385 23.969 17.9078 22.7398 20.0616 20.8346C20.4924 20.4658 20.8616 20.0356 21.2924 19.544H18.8308C18.5231 19.1752 18.2155 18.745 17.9693 18.3148H22.1539C22.4001 17.946 22.6462 17.5158 22.8309 17.0241H17.2308C17.0462 16.6554 16.8616 16.2252 16.7385 15.7335H23.3232C23.6924 14.6272 23.9385 13.3981 23.9385 12.046Z" fill="#C8191C"/>
<path d="M16.2468 15.0572L16.4314 13.9509C16.3698 13.9509 16.2468 14.0124 16.1237 14.0124C15.6929 14.0124 15.6314 13.7666 15.6929 13.6436L16.0621 11.4311H16.7391L16.9237 10.2019H16.3083L16.4314 9.46443H15.1391C15.1391 9.46443 14.4006 13.6436 14.4006 14.1353C14.4006 14.8728 14.8314 15.2416 15.4468 15.2416C15.816 15.2416 16.1237 15.1187 16.2468 15.0572Z" fill="#F8F7F3"/>
<path d="M16.6774 13.0285C16.6774 14.8108 17.9081 15.2411 18.8928 15.2411C19.8158 15.2411 20.2466 15.0567 20.2466 15.0567L20.4928 13.8275C20.4928 13.8275 19.8158 14.1348 19.1389 14.1348C17.7235 14.1348 17.9697 13.09 17.9697 13.09H20.5543C20.5543 13.09 20.7389 12.291 20.7389 11.9223C20.7389 11.1233 20.3081 10.0785 18.8928 10.0785C17.662 10.017 16.6774 11.4306 16.6774 13.0285ZM18.8928 11.1848C19.5697 11.1848 19.4466 11.9837 19.4466 12.0452H18.0312C18.0927 11.9837 18.2158 11.1848 18.8928 11.1848Z" fill="#F8F7F3"/>
<path d="M26.9533 15.0574L27.1994 13.6439C27.1994 13.6439 26.584 13.9512 26.0917 13.9512C25.2302 13.9512 24.7994 13.2751 24.7994 12.4762C24.7994 10.9397 25.5379 10.1407 26.461 10.1407C27.0763 10.1407 27.6302 10.5095 27.6302 10.5095L27.8148 9.15738C27.8148 9.15738 27.0763 8.85008 26.3379 8.85008C24.8609 8.85008 23.4456 10.1407 23.4456 12.5376C23.4456 14.1356 24.184 15.1804 25.7225 15.1804C26.2763 15.2418 26.9533 15.0574 26.9533 15.0574Z" fill="#F8F7F3"/>
<path d="M9.29257 10.018C8.43103 10.018 7.75411 10.2638 7.75411 10.2638L7.56949 11.3701C7.56949 11.3701 8.12334 11.1242 8.98488 11.1242C9.41565 11.1242 9.78488 11.1857 9.78488 11.5544C9.78488 11.8003 9.72334 11.8617 9.72334 11.8617H9.1695C8.0618 11.8617 6.89256 12.292 6.89256 13.767C6.89256 14.9347 7.63103 15.1805 8.12334 15.1805C8.98488 15.1805 9.41565 14.6274 9.47719 14.6274L9.41565 15.1191H10.4618L10.9541 11.6159C10.9541 10.0794 9.72334 10.018 9.29257 10.018ZM9.53873 12.8451C9.53873 13.0295 9.41565 14.0743 8.67719 14.0743C8.30795 14.0743 8.18488 13.767 8.18488 13.5826C8.18488 13.2753 8.36949 12.8451 9.35411 12.8451C9.47719 12.8451 9.53873 12.8451 9.53873 12.8451Z" fill="#F8F7F3"/>
<path d="M12.1842 15.1798C12.4919 15.1798 14.0919 15.2413 14.0919 13.5204C14.0919 11.9225 12.5535 12.2298 12.5535 11.6152C12.5535 11.3079 12.7996 11.185 13.2304 11.185C13.415 11.185 14.0919 11.2464 14.0919 11.2464L14.2766 10.0787C14.2766 10.0787 13.8458 9.95579 13.0458 9.95579C12.1227 9.95579 11.1381 10.3245 11.1381 11.6152C11.1381 13.0902 12.7381 12.9673 12.7381 13.5204C12.7381 13.8892 12.3073 13.9506 11.9996 13.9506C11.4458 13.9506 10.8304 13.7662 10.8304 13.7662L10.6458 14.934C10.7688 15.0569 11.1381 15.1798 12.1842 15.1798Z" fill="#F8F7F3"/>
<path d="M37.5387 9.03399L37.2925 10.7548C37.2925 10.7548 36.8002 10.1403 36.0617 10.1403C34.8925 10.1403 33.9079 11.5538 33.9079 13.2132C33.9079 14.258 34.4002 15.3028 35.5079 15.3028C36.2463 15.3028 36.7387 14.8111 36.7387 14.8111L36.6771 15.2413H37.9694L38.8925 9.15691L37.5387 9.03399ZM36.9233 12.3528C36.9233 13.0288 36.6156 13.9507 35.8771 13.9507C35.4463 13.9507 35.2002 13.582 35.2002 12.9059C35.2002 11.8611 35.631 11.2465 36.2463 11.2465C36.6771 11.308 36.9233 11.6153 36.9233 12.3528Z" fill="#F8F7F3"/>
<path d="M2.33728 15.1183L3.07575 10.5703L3.19882 15.1183H4.06037L5.72191 10.5703L5.04499 15.1183H6.39884L7.44499 9.03384H5.35268L4.06037 12.7828L3.99883 9.03384H2.15267L1.10651 15.1183H2.33728Z" fill="#F8F7F3"/>
<path d="M22.0309 15.1185C22.4001 13.0289 22.4617 11.3081 23.3848 11.6154C23.5078 10.8164 23.6924 10.4476 23.8155 10.1403H23.5694C23.0155 10.1403 22.5232 10.8779 22.5232 10.8779L22.6463 10.2018H21.4155L20.6155 15.1185H22.0309Z" fill="#F8F7F3"/>
<path d="M29.9081 10.018C29.0465 10.018 28.3696 10.2638 28.3696 10.2638L28.185 11.3701C28.185 11.3701 28.7388 11.1242 29.6004 11.1242C30.0312 11.1242 30.4004 11.1857 30.4004 11.5544C30.4004 11.8003 30.3389 11.8617 30.3389 11.8617H29.785C28.6773 11.8617 27.5081 12.292 27.5081 13.767C27.5081 14.9347 28.2465 15.1805 28.7388 15.1805C29.6004 15.1805 30.0312 14.6274 30.0927 14.6274L30.0312 15.1191H31.2004L31.6927 11.6159C31.6927 10.0794 30.3389 10.018 29.9081 10.018ZM30.2158 12.8451C30.2158 13.0295 30.0927 14.0743 29.3542 14.0743C28.985 14.0743 28.8619 13.767 28.8619 13.5826C28.8619 13.2753 29.0465 12.8451 30.0312 12.8451C30.1542 12.8451 30.1542 12.8451 30.2158 12.8451Z" fill="#F8F7F3"/>
<path d="M32.6783 15.1185C33.0475 13.0289 33.109 11.3081 34.0321 11.6154C34.1552 10.8164 34.3398 10.4476 34.4629 10.1403H34.2167C33.6629 10.1403 33.1706 10.8779 33.1706 10.8779L33.2937 10.2018H32.0629L31.2629 15.1185H32.6783Z" fill="#F8F7F3"/>
</svg>

<svg width="40" height="24" fill="none" xmlns="http://www.w3.org/2000/svg"><path d="M40 11.985c0 6.576-5.354 11.984-12 11.984-6.585 0-12-5.408-12-11.985C16 5.409 21.354 0 27.938 0 34.646 0 40 5.408 40 11.985Z" fill="#F9B50B"/><path d="M23.939 12.046c0-.86-.123-1.72-.247-2.52h-7.384c.061-.43.184-.799.307-1.29H23.2c-.123-.43-.308-.86-.492-1.291h-5.6c.184-.43.43-.8.677-1.29h4.246a8.39 8.39 0 0 0-.923-1.291h-2.339c.37-.43.739-.8 1.231-1.23C17.908 1.168 15.077 0 11.938 0 5.415.184 0 5.408 0 11.985c0 6.576 5.354 11.984 12 11.984 3.139 0 5.908-1.23 8.062-3.134.43-.37.8-.8 1.23-1.291h-2.461a8.79 8.79 0 0 1-.862-1.23h4.185c.246-.368.492-.798.677-1.29h-5.6a6.282 6.282 0 0 1-.493-1.29h6.585c.37-1.107.616-2.336.616-3.688Z" fill="#C8191C"/><path d="m16.247 15.057.184-1.106c-.061 0-.184.061-.307.061-.431 0-.493-.245-.431-.368l.37-2.213h.676l.185-1.23h-.616l.123-.737H15.14s-.738 4.18-.738 4.671c0 .738.43 1.107 1.046 1.107.369 0 .677-.123.8-.185ZM16.677 13.028c0 1.783 1.231 2.213 2.216 2.213.923 0 1.354-.184 1.354-.184l.246-1.23s-.677.308-1.354.308c-1.415 0-1.17-1.045-1.17-1.045h2.585s.185-.799.185-1.168c0-.799-.43-1.844-1.846-1.844-1.231-.061-2.216 1.353-2.216 2.95Zm2.216-1.843c.677 0 .554.799.554.86H18.03c.062-.061.185-.86.862-.86ZM26.953 15.057l.246-1.413s-.615.307-1.107.307c-.862 0-1.293-.676-1.293-1.475 0-1.536.739-2.335 1.662-2.335.615 0 1.17.368 1.17.368l.184-1.352s-.739-.307-1.477-.307c-1.477 0-2.892 1.29-2.892 3.688 0 1.598.738 2.642 2.276 2.642.554.062 1.231-.123 1.231-.123ZM9.293 10.018c-.862 0-1.539.246-1.539.246L7.57 11.37s.554-.246 1.416-.246c.43 0 .8.062.8.43 0 .246-.062.308-.062.308H9.17c-1.107 0-2.276.43-2.276 1.905 0 1.168.738 1.414 1.23 1.414.862 0 1.293-.554 1.354-.554l-.061.492h1.046l.492-3.503c0-1.537-1.23-1.598-1.661-1.598Zm.246 2.827c0 .184-.123 1.23-.862 1.23-.369 0-.492-.308-.492-.492 0-.308.184-.738 1.17-.738h.184ZM12.184 15.18c.308 0 1.908.061 1.908-1.66 0-1.598-1.539-1.29-1.539-1.905 0-.307.247-.43.677-.43.185 0 .862.061.862.061l.185-1.167s-.431-.123-1.231-.123c-.923 0-1.908.369-1.908 1.66 0 1.474 1.6 1.351 1.6 1.904 0 .37-.43.43-.738.43-.554 0-1.17-.184-1.17-.184l-.184 1.168c.123.123.492.246 1.538.246ZM37.539 9.034l-.247 1.72s-.492-.614-1.23-.614c-1.17 0-2.154 1.414-2.154 3.073 0 1.045.492 2.09 1.6 2.09.738 0 1.23-.492 1.23-.492l-.06.43h1.291l.923-6.084-1.353-.123Zm-.616 3.319c0 .676-.307 1.598-1.046 1.598-.43 0-.677-.369-.677-1.045 0-1.045.431-1.66 1.046-1.66.431.062.677.37.677 1.107ZM2.337 15.118l.739-4.548.123 4.548h.861l1.662-4.548-.677 4.548h1.354l1.046-6.084H5.353L4.06 12.783 4 9.033H2.153l-1.046 6.085h1.23Z" fill="#F8F7F3"/><path d="M22.03 15.118c.37-2.09.432-3.81 1.355-3.503.123-.799.307-1.167.43-1.475h-.246c-.553 0-1.046.738-1.046.738l.123-.676h-1.23l-.8 4.916h1.415ZM29.908 10.018c-.861 0-1.538.246-1.538.246l-.185 1.106s.554-.246 1.415-.246c.431 0 .8.062.8.43 0 .246-.061.308-.061.308h-.554c-1.108 0-2.277.43-2.277 1.905 0 1.168.739 1.414 1.23 1.414.862 0 1.293-.554 1.355-.554l-.062.492h1.17l.492-3.503c0-1.537-1.354-1.598-1.785-1.598Zm.308 2.827c0 .184-.123 1.23-.862 1.23-.369 0-.492-.308-.492-.492 0-.308.185-.738 1.17-.738h.184ZM32.678 15.118c.37-2.09.431-3.81 1.354-3.503.123-.799.308-1.167.43-1.475h-.245c-.554 0-1.046.738-1.046.738l.123-.676h-1.231l-.8 4.916h1.415Z" fill="#F8F7F3"/></svg>
